hosted_logos/keysom.svg

<svg xmlns="http://www.w3.org/2000/svg" role="img" viewBox="-6.91 -6.91 359.58 88.58"><path fill="url(#paint0_linear_593_3948)" d="M34.2896 68.579c18.9375 0 34.2894-15.352 34.2894-34.2895 0-18.9376-15.3519-34.28952-34.2894-34.28952V68.579z"/><path fill="url(#paint1_linear_593_3948)" d="M34.2896 0C15.352-.00002.00007 15.3519.00007 34.2895.00007 53.227 15.352 68.579 34.2896 68.579V0z"/><path d="M103.185 59.0834h-8.1977V8.49323h8.1977V31.3142l7.533-.5908 10.34-22.23017h9.379L117.956 33.8991l12.998 25.1843h-9.527l-10.709-21.1223-7.533.517v20.6053zm61.254-6.6469l2.068-.2215.147 5.9822c-5.613 1.1324-10.586 1.6986-14.918 1.6986-5.466 0-9.404-1.5017-11.817-4.5051-2.363-3.0034-3.545-7.8039-3.545-14.4016 0-13.0968 5.342-19.6452 16.026-19.6452 10.34 0 15.51 5.6375 15.51 16.9126l-.517 5.7606h-22.895c.049 3.0527.714 5.2929 1.994 6.7208 1.28 1.4278 3.668 2.1418 7.164 2.1418 3.496 0 7.09-.1478 10.783-.4432zm-4.432-14.6231c0-3.6435-.59-6.1792-1.772-7.607-1.133-1.4771-3.077-2.2156-5.835-2.2156-2.757 0-4.776.7631-6.056 2.2894-1.231 1.5264-1.871 4.0374-1.92 7.5332h15.583zm13.885-15.6571h7.902l7.829 30.0587h1.994l7.829-30.0587h7.976l-14.033 52.8058h-7.902l4.431-15.8787h-6.351l-9.675-36.9271zm67.086 7.607c-5.81-.7878-10.02-1.1817-12.629-1.1817-2.61 0-4.432.32-5.466.9601-.984.5908-1.477 1.5509-1.477 2.8803 0 1.3294.542 2.2649 1.625 2.8065 1.132.5416 3.742 1.1816 7.829 1.9202 4.135.6893 7.065 1.7971 8.788 3.3234 1.723 1.5264 2.585 4.2343 2.585 8.124 0 3.8897-1.255 6.7454-3.766 8.5671-2.462 1.8217-6.081 2.7326-10.857 2.7326-3.003 0-6.795-.4185-11.374-1.2555l-2.289-.3693.295-6.7207c5.909.7878 10.168 1.1816 12.777 1.1816 2.61 0 4.456-.32 5.539-.9601 1.133-.64 1.699-1.6986 1.699-3.1757 0-1.4771-.542-2.4864-1.625-3.028-1.034-.5909-3.57-1.2063-7.607-1.8464-3.988-.6893-6.918-1.7479-8.789-3.1757-1.871-1.4279-2.806-4.0374-2.806-7.8286s1.28-6.6222 3.84-8.4932c2.61-1.871 5.933-2.8065 9.971-2.8065 3.151 0 7.016.3939 11.595 1.1817l2.289.4431-.147 6.7208zm13.201-3.6189c2.56-3.2004 6.795-4.8005 12.703-4.8005 5.908 0 10.118 1.6001 12.629 4.8005 2.56 3.2004 3.841 8.0009 3.841 14.4016 0 6.4007-1.231 11.2258-3.693 14.4754-2.462 3.2496-6.721 4.8744-12.777 4.8744-6.056 0-10.315-1.6248-12.777-4.8744-2.462-3.2496-3.693-8.0747-3.693-14.4754 0-6.4007 1.256-11.2012 3.767-14.4016zm6.056 24.0026c1.133 1.9695 3.348 2.9542 6.647 2.9542 3.299 0 5.514-.9847 6.647-2.9542 1.132-1.9694 1.699-5.1944 1.699-9.6749 0-4.4805-.616-7.6562-1.847-9.5272-1.181-1.8709-3.348-2.8064-6.499-2.8064s-5.342.9355-6.573 2.8064c-1.182 1.871-1.773 5.0467-1.773 9.5272s.567 7.7055 1.699 9.6749zm41.379 8.9364h-8.05V22.1563h7.976v2.2895c3.496-2.068 6.696-3.1019 9.601-3.1019 4.283 0 7.41 1.2063 9.379 3.6188 4.481-2.4125 8.937-3.6188 13.368-3.6188 4.431 0 7.558 1.3786 9.38 4.1358 1.821 2.708 2.732 7.3116 2.732 13.8108v19.7929h-7.976V39.512c0-3.9881-.419-6.8192-1.256-8.4932-.787-1.674-2.461-2.5111-5.022-2.5111-2.215 0-4.603.4924-7.164 1.4771l-1.255.517c.394.9847.591 4.1358.591 9.4534v19.1282h-7.977V40.1029c0-4.3821-.393-7.4101-1.181-9.0841-.788-1.674-2.511-2.5111-5.17-2.5111-2.462 0-4.751.4924-6.868 1.4771l-1.108.4432v28.6554z"/><defs><linearGradient id="paint0_linear_593_3948" x1="51.434" x2="51.434" y1="0" y2="68.579" gradientUnits="userSpaceOnUse"><stop/><stop offset="1" stop-opacity="0"/></linearGradient><linearGradient id="paint1_linear_593_3948" x1="17.145" x2="17.145" y1="68.579" y2="0" gradientUnits="userSpaceOnUse"><stop/><stop offset="1" stop-opacity="0"/></linearGradient></defs></svg>

<svg width="346" height="75" viewBox="0 0 346 75" fill="none" xmlns="http://www.w3.org/2000/svg">
<path d="M34.2896 68.579C53.2271 68.579 68.579 53.227 68.579 34.2895C68.579 15.3519 53.2271 -1.52588e-05 34.2896 -1.52588e-05L34.2896 68.579Z" fill="url(#paint0_linear_593_3948)"/>
<path d="M34.2896 -9.17912e-06C15.352 -1.08347e-05 6.87283e-05 15.3519 6.70727e-05 34.2895C6.54171e-05 53.227 15.352 68.579 34.2896 68.579L34.2896 -9.17912e-06Z" fill="url(#paint1_linear_593_3948)"/>
<path d="M103.185 59.0834H94.9873V8.49323H103.185V31.3142L110.718 30.7234L121.058 8.49323H130.437L117.956 33.8991L130.954 59.0834H121.427L110.718 37.9611L103.185 38.4781V59.0834Z" fill="black"/>
<path d="M164.439 52.4365L166.507 52.215L166.654 58.1972C161.041 59.3296 156.068 59.8958 151.736 59.8958C146.27 59.8958 142.332 58.3941 139.919 55.3907C137.556 52.3873 136.374 47.5868 136.374 40.9891C136.374 27.8923 141.716 21.3439 152.4 21.3439C162.74 21.3439 167.91 26.9814 167.91 38.2565L167.393 44.0171H144.498C144.547 47.0698 145.212 49.31 146.492 50.7379C147.772 52.1657 150.16 52.8797 153.656 52.8797C157.152 52.8797 160.746 52.7319 164.439 52.4365ZM160.007 37.8134C160.007 34.1699 159.417 31.6342 158.235 30.2064C157.102 28.7293 155.158 27.9908 152.4 27.9908C149.643 27.9908 147.624 28.7539 146.344 30.2802C145.113 31.8066 144.473 34.3176 144.424 37.8134H160.007Z" fill="black"/>
<path d="M173.892 22.1563H181.794L189.623 52.215H191.617L199.446 22.1563H207.422L193.389 74.9621H185.487L189.918 59.0834H183.567L173.892 22.1563Z" fill="black"/>
<path d="M240.978 29.7633C235.168 28.9755 230.958 28.5816 228.349 28.5816C225.739 28.5816 223.917 28.9016 222.883 29.5417C221.899 30.1325 221.406 31.0926 221.406 32.422C221.406 33.7514 221.948 34.6869 223.031 35.2285C224.163 35.7701 226.773 36.4101 230.86 37.1487C234.995 37.838 237.925 38.9458 239.648 40.4721C241.371 41.9985 242.233 44.7064 242.233 48.5961C242.233 52.4858 240.978 55.3415 238.467 57.1632C236.005 58.9849 232.386 59.8958 227.61 59.8958C224.607 59.8958 220.815 59.4773 216.236 58.6403L213.947 58.271L214.242 51.5503C220.151 52.3381 224.41 52.7319 227.019 52.7319C229.629 52.7319 231.475 52.4119 232.558 51.7718C233.691 51.1318 234.257 50.0732 234.257 48.5961C234.257 47.119 233.715 46.1097 232.632 45.5681C231.598 44.9772 229.062 44.3618 225.025 43.7217C221.037 43.0324 218.107 41.9738 216.236 40.546C214.365 39.1181 213.43 36.5086 213.43 32.7174C213.43 28.9262 214.71 26.0952 217.27 24.2242C219.88 22.3532 223.203 21.4177 227.241 21.4177C230.392 21.4177 234.257 21.8116 238.836 22.5994L241.125 23.0425L240.978 29.7633Z" fill="black"/>
<path d="M254.179 26.1444C256.739 22.944 260.974 21.3439 266.882 21.3439C272.79 21.3439 277 22.944 279.511 26.1444C282.071 29.3448 283.352 34.1453 283.352 40.546C283.352 46.9467 282.121 51.7718 279.659 55.0214C277.197 58.271 272.938 59.8958 266.882 59.8958C260.826 59.8958 256.567 58.271 254.105 55.0214C251.643 51.7718 250.412 46.9467 250.412 40.546C250.412 34.1453 251.668 29.3448 254.179 26.1444ZM260.235 50.147C261.368 52.1165 263.583 53.1012 266.882 53.1012C270.181 53.1012 272.396 52.1165 273.529 50.147C274.661 48.1776 275.228 44.9526 275.228 40.4721C275.228 35.9916 274.612 32.8159 273.381 30.9449C272.2 29.074 270.033 28.1385 266.882 28.1385C263.731 28.1385 261.54 29.074 260.309 30.9449C259.127 32.8159 258.536 35.9916 258.536 40.4721C258.536 44.9526 259.103 48.1776 260.235 50.147Z" fill="black"/>
<path d="M301.614 59.0834H293.564V22.1563H301.54V24.4458C305.036 22.3778 308.236 21.3439 311.141 21.3439C315.424 21.3439 318.551 22.5502 320.52 24.9627C325.001 22.5502 329.457 21.3439 333.888 21.3439C338.319 21.3439 341.446 22.7225 343.268 25.4797C345.089 28.1877 346 32.7913 346 39.2905V59.0834H338.024V39.512C338.024 35.5239 337.605 32.6928 336.768 31.0188C335.981 29.3448 334.307 28.5077 331.746 28.5077C329.531 28.5077 327.143 29.0001 324.582 29.9848L323.327 30.5018C323.721 31.4865 323.918 34.6376 323.918 39.9552V59.0834H315.941V40.1029C315.941 35.7208 315.548 32.6928 314.76 31.0188C313.972 29.3448 312.249 28.5077 309.59 28.5077C307.128 28.5077 304.839 29.0001 302.722 29.9848L301.614 30.428V59.0834Z" fill="black"/>
<defs>
<linearGradient id="paint0_linear_593_3948" x1="51.4343" y1="-1.52588e-05" x2="51.4343" y2="68.579" gradientUnits="userSpaceOnUse">
<stop/>
<stop offset="1" stop-opacity="0"/>
</linearGradient>
<linearGradient id="paint1_linear_593_3948" x1="17.1448" y1="68.579" x2="17.1448" y2="-9.12824e-06" gradientUnits="userSpaceOnUse">
<stop/>
<stop offset="1" stop-opacity="0"/>
</linearGradient>
</defs>
</svg>
